elements/rpg-character/lib/pants/0.svg

<svg width="113" height="142" viewBox="0 0 113 142" fill="none" xmlns="http://www.w3.org/2000/svg">
<path d="M48 127H38V107H73V127H58V122H48V127Z" fill="#4A4A4A"/>
<path d="M48 127V122H43V127H48Z" fill="#323232"/>
<path d="M68 127H73V107H68V127Z" fill="#323232"/>
<path d="M48.5 122V116.5M48.5 116.5H46.5V107M48.5 116.5H50.5" stroke="#323232"/>
<path d="M48 108H49V109H48V108Z" stroke="#CDC4A3"/>
</svg>

<svg xmlns="http://www.w3.org/2000/svg" fill="none" width="113" height="142" viewBox="0 0 113 142"><path d="M48 127H38v-20h35v20H58v-5H48v5Z" fill="#4A4A4A"/><path d="M48 127v-5h-5v5h5Zm20 0h5v-20h-5v20Z" fill="#323232"/><path d="M48.5 122v-5.5m0 0h-2V107m2 9.5h2" stroke="#323232"/><path d="M48 108h1v1h-1v-1Z" stroke="#CDC4A3"/></svg>
